Papirus-Light/24x24/animations/nm-vpn-connecting09.svg

<?xml version="1.0" encoding="UTF-8" standalone="no"?>
<svg xmlns="http://www.w3.org/2000/svg" version="1.1" width="24" height="24">
 <defs>
  <linearGradient x1="7" y1="12" gradientTransform="matrix(-0.43209,0.90183,0.90183,0.43209,6.3632,-4.0071)" x2="19" gradientUnits="userSpaceOnUse" y2="5" id="linearGradient3605">
   <stop offset="0" stop-opacity=".5" stop-color="#5c616c"/>
   <stop offset="1" stop-opacity="0" stop-color="#5c616c"/>
  </linearGradient>
  <linearGradient x1="7" y1="12" gradientTransform="matrix(0.43209,-0.90183,-0.90183,-0.43209,17.637,28.007)" x2="17" gradientUnits="userSpaceOnUse" y2="12" id="linearGradient3611">
   <stop offset="0" stop-color="#5c616c"/>
   <stop offset="1" stop-color="#5c616c" stop-opacity=".5"/>
  </linearGradient>
 </defs>
 <path d="M 15.025391 5.6875 L 14.160156 7.4902344 C 15.953821 8.349431 16.972905 10.139696 16.970703 12.003906 C 16.980749 12.003804 16.98993 12 17 12 C 17.741614 12 18.408976 12.287156 18.929688 12.742188 C 19.236959 9.8771804 17.772887 7.0034994 15.025391 5.6875 z M 9.4179688 16.402344 C 8.4831688 16.379344 7.9487094 17.819547 8.9746094 18.310547 C 10.276919 18.935307 11.670979 19.094204 13 18.898438 L 13 16.865234 C 11.966964 17.0818 10.864996 17.001171 9.8398438 16.509766 C 9.6933438 16.439766 9.5514687 16.406344 9.4179688 16.402344 z" style="fill:url(#linearGradient3611)"/>
 <path d="M 12.330078 5.0058594 C 9.6050781 4.8785594 6.9404 6.3598094 5.6875 8.9746094 C 4.0171 12.461009 5.4881094 16.6425 8.9746094 18.3125 L 9.8398438 16.509766 C 7.3495438 15.316766 6.2970344 12.330044 7.4902344 9.8398438 C 8.6833344 7.3495438 11.669156 6.2970344 14.160156 7.4902344 L 15.025391 5.6875 C 14.154391 5.2699 13.238078 5.0482594 12.330078 5.0058594 z" style="fill:url(#linearGradient3605)"/>
 <path d="m17 13c-1.108 0-2 .91085-2 2.0312v.96875h-1v4h6v-4h-1v-.96875c0-1.12-.892-2.031-2-2.031zm0 1c.554 0 1 .4424 1 1v1h-2v-1c0-.5576.446-1 1-1z" fill="#5c616c"/>
</svg>

<?xml version="1.0" encoding="UTF-8" standalone="no"?>
<svg xmlns="http://www.w3.org/2000/svg" height="24" width="24" version="1.1">
 <defs>
  <linearGradient id="linearGradient3605" y2="5" gradientUnits="userSpaceOnUse" x2="19" gradientTransform="matrix(-.43209 .90183 .90183 .43209 6.3632 -4.0071)" y1="12" x1="7">
   <stop stop-color="#5c616c" stop-opacity=".5" offset="0"/>
   <stop stop-color="#5c616c" stop-opacity="0" offset="1"/>
  </linearGradient>
  <linearGradient id="linearGradient3611" y2="12" gradientUnits="userSpaceOnUse" x2="17" gradientTransform="matrix(.43209 -.90183 -.90183 -.43209 17.637 28.007)" y1="12" x1="7">
   <stop stop-color="#5c616c" offset="0"/>
   <stop stop-opacity=".5" stop-color="#5c616c" offset="1"/>
  </linearGradient>
 </defs>
 <path fill="url(#linearGradient3611)" d="m15.025 5.6875l-.865 1.8027c1.954.9360 3.003 2.9758 2.797 5.0138.015 0 .028-.004.043-.004.743 0 1.402.338 1.859.859.609-3.061-.889-6.2609-3.834-7.6715zm-5.607 10.714c-.9348-.023-1.4693 1.419-.4434 1.91 1.4654.703 3.0524.843 4.5254.518v-2.074c-1.168.369-2.469.325-3.6602-.246-.1465-.070-.2883-.104-.4218-.108z"/>
 <path fill="url(#linearGradient3605)" d="m12.33 5.0059c-2.725-.1273-5.3896 1.3539-6.6425 3.9687-1.6704 3.4864-.1994 7.6674 3.2871 9.3374l.8652-1.802c-2.4903-1.193-3.5428-4.18-2.3496-6.6702 1.1931-2.4903 4.1788-3.5428 6.6698-2.3496l.865-1.8027c-.871-.4176-1.787-.6392-2.695-.6816z"/>
 <path fill="#5c616c" d="m17 13c-1.108 0-2 .91085-2 2.0312v.96875h-1v4h6v-4h-1v-.96875c0-1.12-.892-2.031-2-2.031zm0 1c.554 0 1 .4424 1 1v1h-2v-1c0-.5576.446-1 1-1z"/>
</svg>
